packages/icons/src/SVG/print-solid.svg

<!-- Generated by IcoMoon.io -->
<svg version="1.1" xmlns="http://www.w3.org/2000/svg" width="12" height="12" viewBox="0 0 12 12">
<title>print-solid</title>
<path d="M2 0h8v2h2v6h-2v4h-8v-4h-2v-6h2v-2zM9 2v-1h-6v1h6zM10 5h-8v2h1v-1h6v1h1v-2zM8 10v-1h-4v1h4zM8 7h-4v1h4v-1z"></path>
</svg>

<svg width="12" height="12" viewBox="0 0 12 12" >
<path fill-rule="evenodd" clip-rule="evenodd" d="M2 0V2H0V8H2V12H10V8H12V2H10V0H2ZM9 2V1L3 1V2H9ZM10 5L2 5V7H3V6H9V7H10V5ZM8 10V9H4V10H8ZM8 7V8H4V7H8Z" />
</svg>
